assets/perplexity/original.svg

<svg viewBox="0 0 24 24" xmlns="http://www.w3.org/2000/svg" fill="#1FB8CD"><path d="m22.3977 7.0896h-2.3106v-7.022l-7.5094 6.3542v-6.2641h-1.1554v6.1966l-6.9319-6.3543v7.0896h-2.8881v10.3976h2.8882v6.5128l6.932-6.3591v6.2005h1.1554v-6.0469l6.9318 6.1807v-6.4879h2.8882v-10.3977zm-3.4657-4.531v4.531h-5.355zm-13.2862.0676 4.8691 4.4634h-4.8691zm-2.8882 13.7058v-8.087h7.8476l-6.1149 6.1147v1.9723zm2.8882 5.0404v-3.8852h.0001v-2.6488l5.7763-5.7764v7.0111zm12.7086.0248-5.7766-5.1509v-7.1845l5.7766 5.7766zm2.8882-5.0652h-1.733v-1.9723l-6.1148-6.1147h7.8478z"/></svg>

<svg xmlns="http://www.w3.org/2000/svg" fill="#1fb8cd" viewBox="0 0 24 24"><path d="M22.398 7.09h-2.31V.068l-7.51 6.354V.158h-1.156v6.196L4.49 0v7.09H1.602v10.397H4.49V24l6.933-6.36v6.201h1.155v-6.047l6.932 6.181v-6.488h2.888zm-3.466-4.531v4.53h-5.355zm-13.286.067 4.869 4.464h-4.87zM2.758 16.332V8.245h7.847L4.49 14.36v1.972zm2.888 5.04v-6.534l5.776-5.776v7.011zm12.708.025-5.776-5.15V9.061l5.776 5.776zm2.889-5.065H19.51V14.36l-6.115-6.115h7.848z"/></svg>
